!!!!SEGMENT: pl-kk--kk-i-333_costanzi-giovanni-battista-sacerdotes-domini.krn
!!!id: 17xx:1933
!!!COM: Costanzi, Giovanni Battista
!!!OTL: Sacerdotes Domini
!!!PDT:
!!!SMS-siglum: PL-Kk
!!!SMS-shelfmark: Kk.I.333
!!!NIFC-rismID: 1001143647
!!!URL-scan: http://repozytorium.nifc.pl/skany/pl-kk-nut--i-333
!!!ONB-nifc:
!!!SMS-variant:
!!!SMS-altvar:
**kern	**fba	**kern	**text	**kern	**text
*part3	*	*part2	*part2	*part1	*part1
*staff3	*	*staff2	*staff2	*staff1	*staff1
*I"Organo	*	*I"Alto à 2.e	*	*I"Canto à 2.	*
*I'org	*	*I'A	*	*I'C	*
*clefF4	*	*clefC3	*	*clefC1	*
*k[f#]	*	*k[f#]	*	*k[f#]	*
*G:	*	*G:	*	*G:	*
*M4/4	*	*M4/4	*	*M4/4	*
*met(c)	*	*met(c)	*	*met(c)	*
=1	=1	=1	=1	=1	=1
*all\right	*	*all\right	*	*all\right	*
!LO:TX:b:t=Sacerdotes D(omi)ni	!	!LO:TX:b:t=4	!	!LO:TX:b:t=1	!
!LO:TX:a:t=Moderato	!	!LO:TX:a:t=Moderato	!	!LO:TX:a:t=Moderato	!
8G\L	.	00r	.	1r	.
16B\L	.	.	.	.	.
16c\JJ	.	.	.	.	.
8d\L	.	.	.	.	.
8D\J	.	.	.	.	.
16G\LL	.	.	.	.	.
16F#\JJ	.	.	.	.	.
4G\	.	.	.	.	.
8BB/	6	.	.	.	.
=2	=2	=2	=2	=2	=2
8C/L	6 5	.	.	2r	.
16BB/L	.	.	.	.	.
16C/JJ	.	.	.	.	.
!LO:TX:t=P:problem:mixed beam	!	!	!	!	!
8D\L	4	.	.	.	.
8DD/J	#3	.	.	.	.
!LO:TX:t=C.	!	!	!	!	!
!LO:TX:t=P:problem:mixed beam	!	!	!	!	!
8GG/L	.	.	.	8g\	Sa-
8G\	.	.	.	16b\LL	-cer-
.	.	.	.	16cc\JJ	.
8G\	.	.	.	8dd\	-do-
8G\J	.	.	.	8g\	-tes
!LO:LB:g=original	!	!	!	!	!
=3	=3	=3	=3	=3	=3
!	!	!	!	!LO:N:vis=8.	!
8c\L	6 #4	.	.	8aM\	Do-
8c\	.	.	.	16g/LL	-mi-
.	.	.	.	16f#/JJ	.
8B\	6	.	.	8g/	-ni
8B\J	.	.	.	8g/	in
!	!	!	!	!LO:LB:g=original	!
8c\L	6 5	.	.	8a\	cen-
8c\	.	.	.	4a\	-sum
8d\	7	.	.	.	.
8d\J	.	.	.	(16b\LL	et
.	.	.	.	16cc\JJ)	.
=4	=4	=4	=4	=4	=4
*	*	*	*	*Xtuplet	*
!	!	!	!	!LO:TUa:problem:klamra łukowa	!
8G\L	.	.	.	24b\LL	pa-
.	.	.	.	24a\	.
.	.	.	.	24g\JJ	.
8G\	.	.	.	8g\	-nes
8F#\	6	.	.	[4dd\	of-
8F#\J	.	.	.	.	.
!LO:TX:t=P:problem:mixed beam	!	!	!	!	!
8E\L	7	.	.	8dd\L]	.
8E\	.	.	.	16cc#X\L	.
.	.	.	.	16dd\JJ	.
8AA/	7 #	.	.	8ee\	-fer-
8AA/J	.	.	.	8g\	-unt
=5	=5	=5	=5	=5	=5
8D/L	4	8d\	Sa-	8g\	de-
8D/J	.	(16f#\LL	-cer-	8f#/	-o
.	.	16g\JJ)	.	.	.
8F#\L	6	8a\	-do-	4r	.
8F#\J	.	8d\	-tes	.	.
8G\L	6	8.e\	Do-	2r	.
8G\	.	.	.	.	.
.	.	32d\LLL	-mi-	.	.
.	.	32c#X\JJJ	.	.	.
8F#\	6	8d\	-ni	.	.
8F#\J	.	8d\	in	.	.
!LO:LB:g=original	!	!LO:LB:g=original	!	!LO:LB:g=original	!
=6-	=6	=6	=6	=6	=6
!	!	!	!	!LO:TX:b:t=1	!
8G\L	6 5	8e#X\	cen-	1r	.
8G\	.	4e#\	-sum	.	.
8A\	.	.	.	.	.
8A\J	7 #	16f#\LL	et	.	.
.	.	16g\JJ	.	.	.
*	*	*Xtuplet	*	*	*
!	!	!LO:TUP:a:problem:klamra łukowa	!	!	!
8D/L	.	24f#\LL	pa-	.	.
.	.	24e#\	.	.	.
.	.	24d\JJ	.	.	.
8D/	.	8d\	-nes	.	.
8BB/	.	[4g\	of-	.	.
8BB/J	.	.	.	.	.
=7	=7	=7	=7	=7	=7
8C/L	5	8g\]	.	2r	.
8BB/	.	16a\	-fe-	.	.
.	.	16b\	-runt	.	.
8AA/	.	4cc\	de-	.	.
8D/J	7 #	.	.	.	.
!LO:TX:t=P:problem:mixed beam	!	!	!	!	!
8GG/L	.	4b\	-o	4r	.
16G\L	.	.	.	.	.
16A\JJ	.	.	.	.	.
8B\L	.	8r	.	8r	.
!LO:TX:t=a 2.	!	!	!	!	!
8G\J	.	8b\	et	8dd\	et
!	!	!LO:LB:g=original	!	!	!
=8	=8	=8	=8	=8	=8
4GG/	.	8.g\	id-	8.b\	id
.	.	16a\	-e-	16cc\	e-
4r	.	4b\	-o	4dd\	-o
*	*below	*	*	*	*
8G\L	5 3	8b\	San-	(8dd\	san-
8G\	6 4	4cc\	.	4ee\)	.
8G\	5 3	.	.	.	.
8G\J	.	8b\	-cti	8dd\	-cti
!LO:LB:g=original	!	!	!	!	!
=9	=9	=9	=9	=9	=9
8A\L	n	16a\LL	e-	16cc\LL	e-
.	.	16g\JJ	.	16b\JJ	.
8A\	.	4a\	-runt	4cc\	-runt
8A\	.	.	.	.	.
8A\J	.	8a\	et	8cc\	et
!	!	!	!	!LO:LB:g=original	!
*	*above	*	*	*	*
8D\L	7	8.f#\	i-	8.a\	id-
8D\	.	.	.	.	.
.	.	16g\	-de-	16b\	-e-
8D\	.	4a\	-o	4cc\	-o
8D\J	.	.	.	.	.
!	!	!LO:LB:g=original	!	!	!
=10	=10	=10	=10	=10	=10
8D\L	.	(8a\	San-	(8cc\	san-
!	!	!LO:TX:t=P:problem:przed nutą kropka	!	!	!
8D\	.	4f#\)	.	4dd\)	.
8D\	.	.	.	.	.
8D\J	.	8f#\	-cti	8cc\	-cti
8G\L	.	16g\LL	er-	16b\LL	er-
.	.	16f#\JJ	.	16a\JJ	.
8G\	.	4.g\	-unt	4.b\	-unt
8G\	.	.	.	.	.
8G\J	.	.	.	.	.
=11	=11	=11	=11	=11	=11
4G\	.	8g\L	de-	(8b\L	de-
.	.	16a\L	.	16cc\L	.
.	.	16b\J	.	16dd\J	.
8r	.	8a\J	.	8cc\J)	.
8GG/	.	8g\	-o	8b\	-o
!	!	!	!	!LO:LB:g=original	!
*	*below	*	*	*	*
8D/L	6 4	4g\	su-	4bm\	Su-
8D/	.	.	.	.	.
8D/	5 3	4f#\	-o	4a\	-o
8D/J	.	.	.	.	.
!LO:LB:g=original	!	!	!	!	!
=12	=12	=12	=12	=12	=12
8BB/L	#5	2r	.	4.dd\	et
8BB/	.	.	.	.	.
8BB/	.	.	.	.	.
8BB/J	.	.	.	8b\	non
!	!	!LO:LB:g=original	!	!	!
8E\L	.	4.g\	et	16g/	pol-
.	.	.	.	16f#/	-lu-
8E\	.	.	.	8g/	-ent
8E\	.	.	.	[4ee\	no-
8E\J	.	8e\	non	.	.
=13	=13	=13	=13	=13	=13
*	*above	*	*	*	*
2AA/	#	8.c#X\	pol-	8ee\L]	.
.	.	.	.	8dd\J	.
.	.	16d\	-lu-	.	.
.	.	4e\	-ent	4cc#X\	-men
16AA/LL	.	4.g\	no-	4.cc#\	no-
16AA/	7	.	.	.	.
16AA/	.	.	.	.	.
16AA/JJ	.	.	.	.	.
16AA/LL	.	.	.	.	.
16AA/	.	.	.	.	.
16AA/	.	8g\	-men	8cc#\	-men
16AA/JJ	.	.	.	.	.
!	!	!	!	!LO:LB:g=original	!
=14	=14	=14	=14	=14	=14
4D\	.	8f#\L	no-	(8dd\L	no-
.	.	16g\L	.	16ee\L	.
.	.	16a\JJ	.	16ff#\JJ)	.
4G\	.	8b\L	-men	8gg\L	-men
.	.	16a\L	.	16ff#\L	.
.	.	16g\JJ	.	16ee\JJ	.
!LO:TX:t=P:problem:mixed beam	!	!	!	!	!
8A\L	.	(4f#\	e-	4dd\	e-
*	*below	*	*	*	*
8A\	4 6	.	.	.	.
8AA/	#	4e\)	.	4cc#Xm\	.
8AA/J	3 5	.	.	.	.
!LO:LB:g=original	!	!LO:LB:g=original	!	!	!
=15	=15	=15	=15	=15	=15
8D\L	.	4d\	-ius	4dd\	-ius
16F#\L	.	.	.	.	.
16G\JJ	.	.	.	.	.
8A\L	.	4r	.	4r	.
8B\J	.	.	.	.	.
8C#X/L	.	2r	.	2r	.
8D/J	.	.	.	.	.
4r	.	.	.	.	.
=16	=16	=16	=16	=16	=16
!	!	!	!	!LO:TX:b:t=3	!
*	*above	*	*	*	*
8D\L	4	8d\	Sa-	0r	.
8D\	.	16f#\LL	-cer-	.	.
.	.	16g\JJ	.	.	.
8F#\	6	8a\	-do-	.	.
8F#\J	.	8d\	-tes	.	.
8G\L	6	8.e\	Do-	.	.
8G\	.	.	.	.	.
.	.	32d\LLL	-mi-	.	.
.	.	32c#X\JJJ	.	.	.
8F#\	6	8d\	-ni	.	.
8F#\J	.	8d\	in	.	.
!	!	!LO:LB:g=original	!	!	!
=17	=17	=17	=17	=17	=17
8G\L	6 5	8e\	cen-	.	.
8G\	.	4e\	-su(m)	.	.
8A\	7 #	.	.	.	.
8A\J	.	16f#\LL	et	.	.
.	.	16g\JJ	.	.	.
!	!	!LO:TUP:a:problem:klamra łukowa	!	!	!
8D\L	.	24f#\LL	pa-	.	.
.	.	24e\	.	.	.
.	.	24d\JJ	.	.	.
8D\	.	8d\	-nes	.	.
8D\	.	[4a\	of-	.	.
8D\J	.	.	.	.	.
!LO:LB:g=original	!	!	!	!	!
=18	=18	=18	=18	=18	=18
8F#\L	6	8a\L]	.	1r	.
8F#\	.	16g\L	.	.	.
.	.	16a\JJ	.	.	.
8G\	.	8b\	-fe-	.	.
8G\J	.	8d\	-runt	.	.
8A\L	#	4c#X\	De-	.	.
8G\	.	.	.	.	.
8F#\	6	4d\	-o	.	.
8D\J	.	.	.	.	.
!	!	!LO:LB:g=original	!	!LO:LB:g=original	!
=19	=19	=19	=19	=19	=19
!LO:TX:t=C.	!	!LO:TX:b:t=2	!	!	!
8G\L	.	0r	.	8g\	sa-
8G\	.	.	.	16b\LL	-cer-
.	.	.	.	16cc\JJ	.
8B\	6	.	.	8dd\	-do-
8B\J	.	.	.	8g\	-tes
!LO:TX:t=P:problem:mixed beam	!	!	!	!	!
8c\L	6	.	.	8aM\	Do-
8c\	.	.	.	16g/LL	-mi-
.	.	.	.	16f#/JJ	.
8B\	.	.	.	8g/	-ni
8BB/J	6	.	.	8g/	in
=20	=20	=20	=20	=20	=20
8C/L	6	.	.	8a\	cen-
8C/	.	.	.	4a\	-sum
8D/	7	.	.	.	.
8D/J	.	.	.	16b\LL	et
.	.	.	.	16cc\JJ	.
8G\L	.	.	.	24b\LL	pa-
.	.	.	.	24a\	.
.	.	.	.	24g\JJ	.
8G\	.	.	.	8g\	-nes
8G\	.	.	.	[4dd\	of-
8A\J	.	.	.	.	.
!LO:LB:g=original	!	!	!	!LO:LB:g=original	!
=21	=21	=21	=21	=21	=21
8B\L	.	4r	.	8dd\]	.
8G\	.	.	.	16cc\	-fe-
.	.	.	.	16b\	-runt
8A\	.	8r	.	4cc\	de-
!LO:TX:b:t=P:problem:2 z cyfrowania na dole	!	!	!	!	!
8F#\J	6 5 2	8d\	et	.	.
*	*below	*	*	*	*
8G\L	2	8g\	id-	4b\	-o
8G\	.	16g\	-e-	.	.
.	.	16a\	-o	.	.
8G\	.	8b\	San-	8r	.
8G\J	.	16a\LL	-cti	8b\	et
.	.	16g\JJ	.	.	.
=22	=22	=22	=22	=22	=22
8E\L	.	16g\LL	er-	8cc\	id-
.	.	16f#\JJ	.	.	.
8E\	.	8g\	-unt	16cc\	-e-
.	.	.	.	16dd\	-o
8C\	.	8r	.	8ee\	san-
8C\J	.	8e\	et	16dd\LL	-cti
.	.	.	.	16cc\JJ	.
!	!	!LO:LB:g=original	!	!	!
8A\L	5	8a\	id-	8a\	e-
8A\	.	16a\	-e-	8a\	-runt
.	.	16b\	-o	.	.
8A\	.	8cc\	San-	8r	.
8A\J	.	16b\LL	-cti	8a\	et
.	.	16a\JJ	.	.	.
!	!	!	!	!LO:LB:g=original	!
=23	=23	=23	=23	=23	=23
*	*above	*	*	*	*
8F#X\L	6	16a\LL	er-	8dd\	id-
.	.	16g\JJ	.	.	.
8F#\	.	8a\	-unt	16dd\	-e-
.	.	.	.	16ee\	-o
8D\	.	4r	.	8ff#X\	San-
8D\J	.	.	.	16ee\LL	-cti
.	.	.	.	16dd\JJ	.
8G\L	.	4r	.	16b\LL	e-
.	.	.	.	16a\JJ	.
8G\	.	.	.	8b\	-runt
8G\	.	[4b\	De-	[4dd\	de-
8G\J	.	.	.	.	.
!LO:LB:g=original	!	!	!	!	!
=24	=24	=24	=24	=24	=24
8G\L	.	8b\]	.	8dd\]	.
8A\	.	8a\	-o	8cc\	-o
8B\	.	4g\	su-	4b\	su-
8c\J	.	.	.	.	.
8d\L	.	4f#\	-o	4a\	-o
8D\	.	.	.	.	.
8D\	.	4r	.	4r	.
8D\J	.	.	.	.	.
!	!	!LO:PB:g=original	!	!LO:PB:g=original	!
=25	=25	=25	=25	=25	=25
!	!	!LO:TX:b:t=1	!	!	!
*	*below	*	*	*	*
8F#\L	6	1r	.	8dd\	et
8F#\	.	.	.	(4dd\	non
8F#\	5	.	.	.	.
8F#\J	.	.	.	8cc\)	.
8G\L	-3	.	.	8.b-X\	pol-
8G\	.	.	.	.	.
.	.	.	.	16a\	-lu-
8G\	.	.	.	4b-\	-ent
8G\J	.	.	.	.	.
=26	=26	=26	=26	=26	=26
8G\L	-	8g\	et	8b-X\	no-
8G\	.	(4g\	non	8b-\	-men
!LO:TX:a:t=P:problem:dodatkowy kasownik w cyfrowaniu na górze	!	!	!	!	!
8G\	n3	.	.	8.bnm\L	e-
8G\J	.	8f-X\)	.	.	.
.	.	.	.	32a\LL	.
.	.	.	.	32b\JJJ	.
8C/L	6	8.e-X\	pol-	4cc\	-ius
8C/	.	.	.	.	.
.	.	16d\	-lu-	.	.
8C/	.	4e-\	-ent	4r	.
8C/J	.	.	.	.	.
!LO:PB:g=original	!	!	!	!LO:LB:g=original	!
=27-	=27	=27	=27	=27	=27
8c\L	6	8e-X\	no-	2r	.
8c\	.	8e-\	-men	.	.
8B-X\	n4	8.en\L	e-	.	.
8B-\J	.	.	.	.	.
.	.	32d\LL	.	.	.
.	.	32e\JJJ	.	.	.
8A\L	4	4fn\	-ius	8cc\	et
8A\	6	.	.	(4cc\	non
8A\	.	4r	.	.	.
*	*above	*	*	*	*
8G\J	6	.	.	8b-X\)	.
!	!	!LO:LB:g=original	!	!	!
=28	=28	=28	=28	=28	=28
!	!	!LO:TX:b:t=1	!	!	!
8Fn\L	.	1r	.	8.a\	pol-
8F\	.	.	.	.	.
.	.	.	.	16g\	-lu-
8F\	.	.	.	4a\	-ent
8F\J	.	.	.	.	.
8F\L	.	.	.	8a\	no-
8F\	.	.	.	8a\	-men
*	*below	*	*	*	*
8E-X\	6 4	.	.	8.aM\L	e-
8E-\J	.	.	.	.	.
.	.	.	.	32g\LL	.
.	.	.	.	32a\JJJ	.
!	!	!	!	!LO:LB:g=original	!
=29	=29	=29	=29	=29	=29
8D/L	-6	4r	.	4b-X\	-ius
8D/	.	.	.	.	.
8GG/	.	[4g\	no-	[4b-\	no-
8AA/J	6	.	.	.	.
!LO:TX:t=P:problem:mixed beam	!	!	!	!	!
8BB-X/L	6	8g\L]	.	8b-\L]	.
8G\	.	8b-X\	.	8dd\	.
8c\	.	8cc\J	.	8ee-X\J	.
8C/J	-3	16b-X\LL	-men	(16dd\LL	-men
.	.	16a\JJ	.	16cc\JJ)	.
!LO:LB:g=original	!	!	!	!	!
=30	=30	=30	=30	=30	=30
8D/L	.	4g\	e-	4b-X\	e-
8D/	-6 4 4	.	.	.	.
8D/	.	4f#X\	-ius	8a\	-ius
8D/J	5 3	.	.	8a\	et
2C/	#4 2	2r	.	8dd\	id-
.	.	.	.	16a\	-e-
.	.	.	.	16g\	-o
.	.	.	.	8f#X/	san-
.	.	.	.	16e/LL	-cti
.	.	.	.	16d/JJ	.
!	!	!	!	!LO:LB:g=original	!
=31	=31	=31	=31	=31	=31
*	*above	*	*	*	*
8BBn/L	6	4r	.	8.g/L	e-
8BB/	.	.	.	.	.
.	.	.	.	16f#/Jk	.
8BB/	.	4.gM\	De-	4g/	-runt
8BB/J	.	.	.	.	.
8AA/L	7	.	.	4.cc\	de-
8AA/	.	16f#\LL	.	.	.
.	.	16g\JJ	.	.	.
8AA/	#6	[4a\	.	.	.
8AA/J	.	.	.	16b\LL	.
.	.	.	.	16cc\JJ	.
!	!	!LO:LB:g=original	!	!	!
=32	=32	=32	=32	=32	=32
8BB/L	7	8a\L]	.	4.dd\	.
8BB/	6	16g\L	.	.	.
.	.	16a\JJ	.	.	.
8BB/	.	[4bn\	.	.	.
8BB/J	.	.	.	16cc\LL	.
.	.	.	.	16dd\JJ	.
!LO:TX:t=P:problem:mixed beam	!	!	!	!	!
8C/L	7	8b\L]	.	4.ee\	.
8C/	6	16a\L	.	.	.
.	.	16b\JJ	.	.	.
8c\	.	[4cc\	.	.	.
8c\J	.	.	.	16aa\LL	.
.	.	.	.	16ff#\JJ	.
!LO:LB:g=original	!	!	!	!	!
=33	=33	=33	=33	=33	=33
8F#X\L	6 5	8cc\L]	.	4.dd\	.
8F#\	.	16b\L	.	.	.
.	.	16a\JJ	.	.	.
8G\	.	4.b\	.	.	.
8G\J	.	.	.	16gg\LL	.
.	.	.	.	16ee\JJ	.
!	!	!	!	!LO:LB:g=original	!
8E\L	6 5	.	.	4.cc\	.
8E\	.	16a\LL	.	.	.
.	.	16g\JJ	.	.	.
8F#\	.	[4a\	.	.	.
8F#\J	.	.	.	16ff#\LL	.
.	.	.	.	16dd\JJ	.
!	!	!LO:LB:g=original	!	!	!
=34	=34	=34	=34	=34	=34
!LO:TX:t=P:problem:mixed beam	!	!	!	!	!
8G\L	9	8a\]	.	8b\	.
8G\	8	(16g\LL	.	8b\	-o
.	.	16f#\JJ)	-o	.	.
8C#X/	7	4gM\	Su-	4bm\	Su-
8C#/J	5	.	.	.	.
*2\right	*	*	*	*	*
2D\	6 5	4f#X\	-o	4a\	-o
.	.	4r	.	8a\	et
.	.	.	.	8b\	non
=35	=35	=35	=35	=35	=35
*	*	*	*	*2\right	*
2C/	.	4r	.	[2cc\	pol-
.	.	8e\	et	.	.
.	.	8f#\	non	.	.
2GG/	4	4.g\	pol-	8cc\L]	.
.	3	.	.	16b\L	.
.	.	.	.	16a\JJ	.
.	.	.	.	8.b\	.
.	.	8g\	-lu-	.	.
.	.	.	.	16b\	-lu-
!	!	!	!	!LO:LB:g=original	!
=36	=36	=36	=36	=36	=36
2D\	.	8f#\	-ent	4a\	-ent
.	.	(8d\L	no-	.	.
.	.	8e\J)	.	4r	.
.	.	8f#\	-men	.	.
!	!	!LO:LB:g=original	!	!	!
*	*	*2\right	*	*	*
8r	.	[2g\	e-	8r	.
8G\L	.	.	.	(8b\L	no-
8A\	.	.	.	8cc\J)	.
8B\J	.	.	.	8dd\	-men
!LO:LB:g=original	!	!	!	!	!
=37	=37	=37	=37	=37	=37
4c\	.	4g\]	.	4ee\	e-
4F#\	6	4a\	.	(16dd\LL	.
.	.	.	.	16cc\	.
.	.	.	.	16b\	.
.	.	.	.	16a\JJ)	.
8G\L	.	8.g\L	.	8.b\L	.
8C\J	.	.	.	.	.
.	.	16a\Jk	.	16cc\Jk	.
8D/L	.	4f#\	.	4a\	.
8DD/J	.	.	.	.	.
=38	=38	=38	=38	=38	=38
2GG/	.	8g\	-ius	4g\	-ius
.	.	(8d\L	no-	.	.
.	.	8e\J)	.	4r	.
.	.	8f#\	-men	.	.
!	!	!	!	!LO:LB:g=original	!
8r	.	[2g\	e-	8r	.
8G\L	.	.	.	(8b\L	no-
8A\	.	.	.	8cc\J)	.
8B\J	.	.	.	8dd\	-men
=39	=39	=39	=39	=39	=39
4c\	.	4g\]	.	4ee\	e-
4F#\	9	[4a\	.	(16dd\LL	.
.	.	.	.	16cc\	.
.	.	.	.	16b\)	.
.	.	.	.	16a\JJ	.
!	!	!LO:LB:g=original	!	!	!
4G\	8	8a\L]	.	4b\	.
.	.	16g\L	.	.	.
.	.	16f#\JJ	.	.	.
4C/	.	8g\	.	4cc\	.
.	.	8a\	.	.	.
=40	=40	=40	=40	=40	=40
1D	6 4	2g\	.	2b\	.
.	5 3	2f#m\	.	2a\	.
!LO:LB:g=original	!	!	!	!	!
=41	=41	=41	=41	=41	=41
4GG/	#	4g\	-ius	4g\	-ius
4r	.	4r	.	4r	.
2r	.	2r	.	2r	.
==	==	==	==	==	==
*-	*-	*-	*-	*-	*-
!!!system-decoration: [(s1,s2)]s3
!!!ENC: Mateusz Solarz
!!!END: 2021-02-08
!!!ENC: Marta Lawrence
!!!END: 2021-02-20
